!!!COM: Music21
!!!OTL: polka_Peat-Fire-Flame--The
!!!OMV: polka_Peat-Fire-Flame--The
**kern
*clefG2
*k[b-]
*d:
*M2/4
=1
16ddLL
16ff
16cc
32ddL
32ccJJJ
=
16aLL
16gJ
8aJ
4ryy
=
[4a
4ryy
=
4a]
4ryy
=||
16.dLL
32eK
16f
16eJJ
4ryy
=
16dLL
16cJ
8aJ
4ryy
=
16aLL
16g
16g
32fL
32gJJJ
4ryy
=
16aLL
16g
16g
16aJJ
4ryy
!!linebreak:original
=
16.dLL
32eK
16f
16eJJ
4ryy
=
16dLL
16c
16a
32aL
32gJJJ
4ryy
=
16fLL
16d
16e
16cJJ
4ryy
=
8dL
8dJ
4ryy
=||
16.fLL
32gK
16a
32ffL
32eeJJJ
4ryy
=
16ddKL
8cc
16aJk
4ryy
=
16aLL
16g
16g
32fL
32gJJJ
4ryy
!!linebreak:original
=
16aLL
16g
16g
16aJJ
4ryy
=
16.fLL
32gK
16a
32ffL
32eeJJJ
4ryy
=
16ddLL
16cc
16.a
32gJJk
4ryy
=
16fLL
16d
16e
16cJJ
4ryy
=
8dL
8dJ
4ryy
=||
*-
